lib/brands/logos/codepen.svg

<svg xmlns="http://www.w3.org/2000/svg" fill="none" aria-hidden="true" viewBox="0 0 240 50"><g id="Codepen"><g id="Union"><path fill="#CCCCCC" fill-rule="evenodd" d="M79.5118 18.484C79.5134 18.4926 79.515 18.5012 79.5166 18.5099H79.5139C79.5163 18.5217 79.5193 18.5326 79.5222 18.5433C79.5259 18.557 79.5295 18.5704 79.532 18.5855C79.5413 18.6611 79.5473 18.7367 79.5473 18.8139V31.2084C79.5473 31.2856 79.5418 31.3612 79.532 31.4368C79.5302 31.4532 79.5269 31.4692 79.5236 31.4852C79.5217 31.4942 79.5199 31.5033 79.5183 31.5124C79.509 31.5617 79.5002 31.611 79.4876 31.6592C79.4794 31.6877 79.4695 31.7156 79.4602 31.7441C79.4465 31.7868 79.4323 31.8296 79.4153 31.8718C79.4059 31.8939 79.3955 31.9158 79.3852 31.9376C79.3822 31.9438 79.3793 31.9499 79.3764 31.9561C79.3578 31.9956 79.3386 32.0344 79.3167 32.0728C79.3008 32.0996 79.2838 32.1265 79.2668 32.1528C79.2433 32.1889 79.2192 32.2245 79.1929 32.259C79.1737 32.2853 79.154 32.31 79.1332 32.3346C79.1058 32.3675 79.0768 32.3987 79.0466 32.4294C79.0236 32.4524 79.0006 32.476 78.9765 32.4973C78.9447 32.5258 78.9113 32.5538 78.8774 32.5806C78.8511 32.6009 78.8253 32.6211 78.7979 32.6403C78.7943 32.643 78.7908 32.6457 78.7873 32.6484C78.7813 32.653 78.7754 32.6575 78.7689 32.6617L60.1777 45.0556C59.8841 45.2512 59.5478 45.3481 59.2081 45.3498C58.8685 45.3514 58.5322 45.2528 58.2385 45.0556L39.6523 32.6551C39.6465 32.6525 39.6421 32.6482 39.6377 32.644C39.6338 32.6402 39.6298 32.6363 39.6249 32.6337C39.6123 32.6214 39.5974 32.6107 39.582 32.5996C39.5708 32.5915 39.5593 32.5833 39.5482 32.574C39.531 32.5591 39.5135 32.5445 39.4962 32.5301C39.4804 32.5169 39.4648 32.5038 39.4496 32.4908C39.4298 32.4789 39.4132 32.4613 39.397 32.4441C39.3908 32.4376 39.3846 32.4311 39.3784 32.425C39.349 32.3991 39.3244 32.37 39.2996 32.3407C39.2967 32.3372 39.2937 32.3337 39.2908 32.3303C39.287 32.3258 39.2834 32.3214 39.2798 32.3171C39.2623 32.2963 39.2464 32.2774 39.2305 32.2547C39.2031 32.2218 39.1774 32.1889 39.1538 32.1506C39.1374 32.1254 39.1198 32.098 39.1045 32.0706C39.0826 32.0306 39.0623 31.9923 39.0443 31.9539C39.0385 31.9394 39.0313 31.9249 39.0241 31.9104C39.0177 31.8975 39.0113 31.8846 39.0059 31.8718C38.9895 31.8318 38.9758 31.7879 38.9621 31.7441C38.9511 31.714 38.9424 31.6866 38.9347 31.6592C38.9201 31.6154 38.9124 31.5716 38.9047 31.5277C38.9038 31.5223 38.9028 31.5168 38.9018 31.5113C38.8998 31.5016 38.8975 31.4924 38.8953 31.4834C38.8915 31.468 38.8878 31.453 38.8854 31.4357C38.8744 31.3607 38.869 31.284 38.869 31.2073V18.8106C38.869 18.7334 38.8744 18.6578 38.8843 18.5822C38.8866 18.5639 38.8903 18.5462 38.8941 18.5284C38.8956 18.5211 38.8971 18.5139 38.8985 18.5066C38.9073 18.4567 38.9166 18.408 38.9292 18.3598C38.9343 18.3426 38.9404 18.3245 38.9466 18.3059C38.9498 18.2966 38.9529 18.2871 38.9561 18.2776C38.9697 18.2349 38.9845 18.1921 39.0015 18.1505C39.0103 18.1287 39.0208 18.1069 39.0311 18.0853C39.0342 18.0787 39.0373 18.0721 39.0404 18.0656C39.0585 18.0273 39.0777 17.9884 39.0996 17.9506C39.1155 17.9226 39.1324 17.8963 39.1494 17.8695C39.173 17.8328 39.1971 17.7977 39.2234 17.7632C39.2426 17.7358 39.2623 17.7112 39.2831 17.6865C39.311 17.6537 39.3395 17.6224 39.3702 17.5918C39.3927 17.5682 39.4157 17.5452 39.4398 17.5233C39.4715 17.4953 39.505 17.468 39.5389 17.4411C39.5429 17.438 39.5469 17.4349 39.5509 17.4318C39.5731 17.4147 39.5951 17.3977 39.6183 17.3814C39.6231 17.3782 39.6274 17.3747 39.6316 17.3712C39.6367 17.3671 39.6417 17.3631 39.6474 17.3595L58.2385 4.96557C58.8252 4.5739 59.5905 4.5739 60.1772 4.96557L78.7672 17.36C78.773 17.3637 78.7782 17.3678 78.7834 17.3719C78.7876 17.3753 78.7918 17.3787 78.7963 17.382C78.8177 17.3965 78.8381 17.4124 78.8585 17.4283C78.8642 17.4328 78.87 17.4372 78.8757 17.4417C78.9102 17.468 78.9431 17.4953 78.9749 17.5244C78.999 17.5468 79.022 17.5698 79.045 17.5929C79.0746 17.6235 79.1041 17.6548 79.1315 17.6876C79.1524 17.7123 79.1721 17.7369 79.1912 17.7627C79.2175 17.7972 79.2416 17.8328 79.2652 17.8689C79.2689 17.8747 79.2726 17.8805 79.2762 17.8863C79.2896 17.9072 79.303 17.9281 79.315 17.95C79.337 17.9878 79.3561 18.0267 79.3748 18.0662C79.3774 18.0719 79.3802 18.0776 79.3829 18.0833C79.3934 18.1056 79.4041 18.128 79.4137 18.1511C79.4306 18.1927 79.4449 18.2354 79.4586 18.2782C79.4613 18.2865 79.4641 18.2948 79.4669 18.303C79.4735 18.3228 79.4802 18.3425 79.486 18.3631C79.4968 18.4028 79.5043 18.4433 79.5118 18.484ZM53.0257 25.0111L59.2076 29.1459L65.39 25.0111L59.2076 20.8758L53.0257 25.0111ZM49.8819 22.9081L57.4601 17.8394V9.68594L43.7646 18.8161L49.8819 22.9081ZM42.3655 27.9353L46.7381 25.0106L42.3655 22.0859V27.9353ZM57.4601 32.1834L49.8819 27.1152V27.1141L43.7646 31.2056L57.4601 40.3369V32.1834ZM68.5338 27.1141L60.9556 32.1824V40.3358L74.6517 31.2056L68.5338 27.1141ZM71.6785 25.0111L76.0507 27.9364V22.0864L71.6785 25.0111ZM60.9556 17.8399L68.5338 22.9081L74.6517 18.8161L60.9556 9.68594V17.8399Z" clip-rule="evenodd"/><path fill="#CCCCCC" d="M21.4748 14.6594C24.0039 14.6598 26.3215 15.5746 28.1234 17.0856L30.5731 14.1659C28.1102 12.0958 24.9363 10.8457 21.4742 10.8457C13.6632 10.8457 7.30872 17.2001 7.30872 25.0106C7.30872 32.8222 13.6632 39.1767 21.4748 39.1745C24.9368 39.1745 28.1108 37.9244 30.5737 35.8543L28.1239 32.9345C26.3239 34.447 24.0039 35.3607 21.4742 35.3607C15.7667 35.3607 11.123 30.7176 11.123 25.0106C11.1225 19.3037 15.7667 14.6584 21.4748 14.6594Z"/><path fill="#CCCCCC" fill-rule="evenodd" d="M99.881 11.6636H92.2557C91.2028 11.6636 90.3494 12.5176 90.3494 13.5699V36.4509C90.3494 37.5027 91.2039 38.3572 92.2557 38.3572H99.8827C107.243 38.3572 113.23 32.3698 113.23 25.0101C113.23 17.6494 107.243 11.6619 99.881 11.6636ZM99.881 34.5445H94.1626V15.4773H99.8827C105.14 15.4773 109.414 19.7556 109.414 25.0112C109.417 30.2706 105.14 34.5434 99.881 34.5445Z" clip-rule="evenodd"/><path fill="#CCCCCC" d="M123.555 36.4513V13.5704H123.557C123.557 12.5164 124.409 11.6618 125.461 11.664H141.351V15.4772H127.368V23.1037H136.266V26.9169H127.368V34.5444H141.351V38.3577H125.461C124.409 38.3577 123.555 37.5031 123.555 36.4513Z"/><path fill="#CCCCCC" d="M181.272 13.5704V36.4513C181.272 37.5031 182.127 38.3577 183.179 38.3577H199.068V34.5444H185.086V26.9169H193.984V23.1037H185.086V15.4772H199.068V11.664H183.179C182.126 11.6618 181.273 12.5164 181.273 13.5704H181.272Z"/><path fill="#CCCCCC" fill-rule="evenodd" d="M154.863 11.6636H163.124C167.331 11.6619 170.753 15.0857 170.753 19.2906C170.753 23.4955 167.332 26.917 163.126 26.917H156.77V38.3578H152.957V13.5699C152.957 12.5176 153.81 11.6636 154.863 11.6636ZM156.77 23.1038H163.124C165.229 23.1054 166.939 21.3947 166.939 19.2906C166.939 17.1865 165.229 15.4773 163.126 15.4773H156.77V23.1038Z" clip-rule="evenodd"/><path fill="#CCCCCC" d="M228.88 31.1847L213.184 12.3492C212.67 11.7319 211.825 11.5029 211.07 11.7768C210.315 12.0507 209.813 12.7672 209.813 13.5697V38.3576H213.626V18.8368L229.322 37.6717C229.692 38.1154 230.231 38.3565 230.784 38.3565C231.001 38.3565 231.221 38.3203 231.434 38.2431C232.188 37.9692 232.691 37.2527 232.691 36.4501V11.6623H228.88V31.1847Z"/></g></g></svg>

<svg xmlns="http://www.w3.org/2000/svg" fill="none" aria-hidden="true" viewBox="0 0 240 50"><path fill="#CCC" fill-rule="evenodd" d="m79.512 18.484.005.026h-.003l.008.033a.426.426 0 0 1 .01.042c.01.076.015.152.015.229v12.394a1.769 1.769 0 0 1-.029.304c-.009.05-.018.099-.03.147l-.028.085a1.842 1.842 0 0 1-.045.128l-.03.066-.009.018a1.689 1.689 0 0 1-.33.473 2.17 2.17 0 0 1-.17.151c-.025.02-.05.041-.078.06l-.01.008a.279.279 0 0 1-.02.014l-18.59 12.394c-.294.195-.63.292-.97.294a1.718 1.718 0 0 1-.97-.294l-18.586-12.4-.014-.012a.055.055 0 0 0-.013-.01c-.013-.013-.028-.023-.043-.034l-.034-.026-.052-.044a3.202 3.202 0 0 1-.099-.086l-.019-.019a.792.792 0 0 1-.078-.084l-.01-.01-.01-.014a.847.847 0 0 1-.05-.062 1.408 1.408 0 0 1-.206-.344.674.674 0 0 1-.018-.04c-.017-.04-.03-.083-.044-.127a1.147 1.147 0 0 1-.027-.085.773.773 0 0 1-.03-.131l-.003-.017-.007-.028a1.58 1.58 0 0 1-.026-.276V18.811a1.751 1.751 0 0 1 .025-.283l.005-.021c.008-.05.018-.099.03-.147l.018-.054.01-.028A1.7 1.7 0 0 1 39 18.15l.03-.066a3.706 3.706 0 0 1 .069-.134 1.61 1.61 0 0 1 .27-.359 1.403 1.403 0 0 1 .18-.16l.068-.05a.179.179 0 0 0 .014-.01.17.17 0 0 1 .015-.012L58.24 4.966a1.746 1.746 0 0 1 1.938 0l18.59 12.394a.16.16 0 0 1 .016.012.26.26 0 0 0 .013.01c.022.014.042.03.063.046l.017.014a1.435 1.435 0 0 1 .169.15 1.767 1.767 0 0 1 .231.294 1.551 1.551 0 0 1 .099.18l.008.017c.01.023.021.045.03.068a1.808 1.808 0 0 1 .054.152l.019.06c.01.04.018.08.026.121Zm-26.486 6.527 6.182 4.135 6.182-4.135-6.182-4.135-6.182 4.135Zm-3.144-2.103 7.578-5.069V9.686l-13.695 9.13 6.117 4.092Zm-7.517 5.027 4.373-2.924-4.373-2.925v5.85Zm15.095 4.248-7.578-5.068-6.117 4.09 13.695 9.132v-8.154Zm11.074-5.069-7.578 5.068v8.154l13.696-9.13-6.118-4.092Zm3.144-2.103 4.373 2.925v-5.85l-4.373 2.925ZM60.956 17.84l7.578 5.068 6.118-4.092-13.696-9.13v8.154Z" clip-rule="evenodd"/><path fill="#CCC" d="M21.475 14.66c2.529 0 4.846.915 6.648 2.426l2.45-2.92a14.097 14.097 0 0 0-9.099-3.32c-7.81 0-14.165 6.354-14.165 14.165 0 7.811 6.354 14.166 14.166 14.164 3.462 0 6.636-1.25 9.099-3.32l-2.45-2.92a10.305 10.305 0 0 1-6.65 2.426c-5.707 0-10.351-4.643-10.351-10.35s4.644-10.353 10.352-10.352Z"/><path fill="#CCC" fill-rule="evenodd" d="M99.881 11.664h-7.625a1.907 1.907 0 0 0-1.907 1.906v22.88c0 1.053.855 1.907 1.907 1.907h7.627c7.36 0 13.347-5.987 13.347-13.347 0-7.36-5.987-13.348-13.349-13.346Zm0 22.88h-5.718V15.477h5.72c5.257 0 9.531 4.279 9.531 9.534.003 5.26-4.274 9.532-9.533 9.534Z" clip-rule="evenodd"/><path fill="#CCC" d="M123.555 36.451v-22.88h.002c0-1.055.852-1.91 1.904-1.907h15.89v3.813h-13.983v7.627h8.898v3.813h-8.898v7.627h13.983v3.814h-15.89a1.907 1.907 0 0 1-1.906-1.907Zm57.717-22.881v22.881c0 1.052.855 1.907 1.907 1.907h15.889v-3.814h-13.982v-7.627h8.898v-3.813h-8.898v-7.627h13.982v-3.813h-15.889a1.904 1.904 0 0 0-1.906 1.906h-.001Z"/><path fill="#CCC" fill-rule="evenodd" d="M154.863 11.664h8.261c4.207-.002 7.629 3.422 7.629 7.627 0 4.204-3.421 7.626-7.627 7.626h-6.356v11.44h-3.813V13.57c0-1.052.853-1.906 1.906-1.906Zm1.907 11.44h6.354a3.816 3.816 0 0 0 3.815-3.813 3.816 3.816 0 0 0-3.813-3.814h-6.356v7.627Z" clip-rule="evenodd"/><path fill="#CCC" d="m228.88 31.185-15.696-18.836a1.905 1.905 0 0 0-3.371 1.22v24.789h3.813V18.837l15.696 18.835a1.902 1.902 0 0 0 2.112.571 1.908 1.908 0 0 0 1.257-1.793V11.662h-3.811v19.523Z"/></svg>
